!!!COM: Palestrina, Giovanni Perluigi da
!!!OPR: Missa Pater noster
!!!OMD: Sanctus
!!!OTL: Hosanna
**kern	**kern	**kern	**kern
*Ibass	*Itenor	*Icalto	*Icant
!Bassus	!Tenor	!Altus	!Cantus
*clefF4	*clefGv2	*clefG2	*clefG2
*k[]	*k[]	*k[]	*k[]
*D:dor	*D:dor	*D:dor	*D:dor
*M4/2	*M4/2	*M4/2	*M4/2
=56	=56	=56	=56
0r	0r	1g	1r
.	.	2g	1dd
.	.	2d	.
=57	=57	=57	=57
0r	0r	2.f	2dd
.	.	.	2a
.	.	4g	.
.	.	2a	2cc
.	.	4g	2dd
.	.	4f	.
=58	=58	=58	=58
0r	1r	2g	1ee
.	.	2a	.
.	2r	4d	2.dd
.	.	4e	.
.	2d	4f	.
.	.	4g	4ee
=59	=59	=59	=59
0r	2d	4a	4ff
.	.	4b	4dd
.	2A	2.cc	1ee
.	2c	.	.
.	.	4b	.
.	2d	[2a	4dd
.	.	.	4cc
=60	=60	=60	=60
1r	1e	2a]	2.b
.	.	2g	.
.	.	.	4cc
1G	2.d	2.b-	2dd
.	.	.	2g
.	4c	4a	.
=61	=61	=61	=61
2G	4d	2g	2b-
.	4e	.	.
2D	2.f	4f	1a
.	.	4e	.
2F	.	1d	.
.	4e	.	.
2G	[2d	.	4g
.	.	.	4f
=62	=62	=62	=62
1A	2d]	1r	2.e
.	2c	.	.
.	.	.	4f
2.G	2.B-	2r	1g
.	.	2g	.
4F	4A	.	.
=63	=63	=63	=63
4G	1G	2g	0r
4A	.	.	.
2.B-	.	2d	.
.	1d	2f	.
4A	.	.	.
[2G	.	2g	.
=64	=64	=64	=64
2G]	2r	1a	1r
2F#	2.d	.	.
1G	.	1b-	2r
.	4c	.	.
.	4d	.	2dd
.	4e	.	.
=65	=65	=65	=65
4D	1f	1a	2dd
4E	.	.	.
4F	.	.	2a
4G	.	.	.
2A	2e	2r	2cc
2F	2A	[2a	2dd
=66	=66	=66	=66
1E	1B	2a]	0ee
.	.	2g#	.
1A	4c	2a	.
.	4d	.	.
.	4e	[2cc	.
.	4f	.	.
=67	=67	=67	=67
1r	1g	2cc]	2.dd
.	.	2b	.
.	.	.	4cc
2r	2.d	2.a	4dd
.	.	.	4ee
2d	.	.	[2ff
.	4e	4g	.
=68	=68	=68	=68
2d	4f	4a	2ff]
.	4g	4b	.
2A	2a	2.cc	1ee
2c	2g	.	.
.	.	4b	.
2d	2f	[2a	[2dd
=69	=69	=69	=69
1e	1g	2a]	2dd]
.	.	1g	2cc#
1d	1a	.	[1dd
.	.	2f#	.
=70	=70	=70	=70
0G	2r	0b	1dd]
.	2g	.	.
.	2g	.	2r
.	2d	.	2dd
=71	=71	=71	=71
2r	1f	0a	2dd
2A	.	.	2a
2A	2e	.	2cc
2F	[2d	.	2dd
=72	=72	=72	=72
2G	2d]	2r	1ee
2A	2c#	2a	.
1D	1d	2a	2.dd
.	.	2f	.
.	.	.	4cc
=73	=73	=73	=73
2E	1r	2g	2b
2F	.	2a	2a
2.G	2r	2.d	1b
.	2d	.	.
4F	.	4e	.
=74	=74	=74	=74
4D	2d	4f	2a
4E	.	4g	.
4F	2A	2.a	2ff
4G	.	.	.
2A	2c	.	2ee
.	.	4e	.
2B-	2d	2g	[2dd
=75	=75	=75	=75
0A	0e	0a	2dd]
.	.	.	4cc#
.	.	.	4b
.	.	.	1cc#
=76	=76	=76	=76
0D	0d	0a	0dd
==	==	==	==
*-	*-	*-	*-
!!!CDT: 1525/^1526/-1594/2/2
!!!OCY: Italia
!!!AGN: Mass (Paraphrase)
!!!AST: renaissance, vocal
!!!ASW: Prayer
!!!PWK: Masses, Book 10
!!!RNB: Cadence finals: A
!!!YOR: Le Opere Complete, v. 27, p. 199
!!!YOO: Rome, Italy: Fratelli Scalera
!!!END: 1992//
!!!EED: John Miller
!!!YEC: Copyright 2000, John Miller
!!!YEN: United States of America
!!!YEM: Rights to all derivative electronic formats reserved.
!!!YEM: Refer to licensing agreement for further details.
!!!YEM: This file must be accompanied by the licensing agreement.
!!!YEM: A copy of the licensing agreement may be found at http://www.music-cog.ohio-state.edu/HumdrumDatabases/Palestrina/license.txt
!!!EMD: converted to Humdrum by Bret Aarden
